assets/icons/24px/stroke/bank-24px.svg

<svg width="24" height="24" viewBox="0 0 24 24" fill="none" xmlns="http://www.w3.org/2000/svg">
<path fill-rule="evenodd" clip-rule="evenodd" d="M11.4014 4.02711C11.0417 4.28807 10.608 4.69608 9.93676 5.33203L5.00958 9.99988L18.9904 9.99988L14.0632 5.33203C13.392 4.69608 12.9583 4.28807 12.5986 4.02711C12.2623 3.7831 12.105 3.75488 12 3.75488C11.895 3.75488 11.7377 3.7831 11.4014 4.02711ZM18.5 11.9999H15.5V19.9999H18.5V11.9999ZM20.5 19.9999H21C21.5523 19.9999 22 20.4476 22 20.9999C22 21.5522 21.5523 21.9999 21 21.9999H3C2.44772 21.9999 2 21.5522 2 20.9999C2 20.4476 2.44772 19.9999 3 19.9999H3.5V11.9239C3.14714 11.853 2.60276 11.661 2.36134 11.0551C2.07917 10.347 2.48632 9.76461 2.68805 9.51174C2.90954 9.23411 3.24243 8.91887 3.58746 8.59215C3.60298 8.57745 3.61853 8.56272 3.63409 8.54798L8.56128 3.88012C8.57672 3.86549 8.59212 3.8509 8.60746 3.83636C9.21925 3.25671 9.74809 2.75565 10.227 2.40825C10.7412 2.0352 11.3081 1.75488 12 1.75488C12.6919 1.75488 13.2588 2.0352 13.773 2.40825C14.2519 2.75564 14.7807 3.2567 15.3925 3.83636L20.3659 8.54798C20.3815 8.56272 20.397 8.57744 20.4125 8.59214C20.7576 8.91887 21.0905 9.23411 21.3119 9.51174C21.5137 9.76461 21.9208 10.347 21.6387 11.0551C21.3972 11.661 20.8529 11.853 20.5 11.9239V19.9999ZM5.5 11.9999V19.9999H8.5V11.9999H5.5ZM10.5 11.9999V19.9999H13.5V11.9999H10.5Z" fill="white"/>
</svg>

<svg width="24" height="24" fill="none" xmlns="http://www.w3.org/2000/svg"><path fill-rule="evenodd" clip-rule="evenodd" d="M11.401 4.027c-.36.261-.793.67-1.464 1.305L5.01 10h13.98l-4.927-4.668c-.671-.636-1.105-1.044-1.464-1.305-.337-.244-.494-.272-.599-.272-.105 0-.262.028-.599.272zM18.5 12h-3v8h3v-8zm2 8h.5a1 1 0 1 1 0 2H3a1 1 0 1 1 0-2h.5v-8.076c-.353-.071-.897-.263-1.139-.869-.282-.708.125-1.29.327-1.543.222-.278.554-.593.9-.92l.046-.044L8.561 3.88l.046-.044c.612-.58 1.141-1.08 1.62-1.428.514-.373 1.081-.653 1.773-.653s1.259.28 1.773.653c.479.348 1.008.849 1.62 1.428l4.973 4.712.047.044c.345.327.677.642.899.92.202.253.609.835.327 1.543-.242.606-.786.798-1.139.869V20zm-15-8v8h3v-8h-3zm5 0v8h3v-8h-3z" fill="#fff"/></svg>
